build/images/slider/stem.svg

<svg width="235" height="222" viewBox="0 0 235 222" fill="none" xmlns="http://www.w3.org/2000/svg">
<path d="M233.447 206.494H1.55261" stroke="#00A79E" stroke-width="3" stroke-miterlimit="10" stroke-linecap="round" stroke-linejoin="round"/>
<path d="M199.197 220.447H102.678" stroke="#00A79E" stroke-width="3" stroke-miterlimit="10" stroke-linecap="round" stroke-linejoin="round"/>
<path d="M84.5955 220.447H47.5093" stroke="#00A79E" stroke-width="3" stroke-miterlimit="10" stroke-linecap="round" stroke-linejoin="round"/>
<path d="M179.262 206.492V200.938" stroke="#00A79E" stroke-width="3" stroke-miterlimit="10" stroke-linecap="round" stroke-linejoin="round"/>
<path d="M191.693 206.492V194.059" stroke="#00A79E" stroke-width="3" stroke-miterlimit="10" stroke-linecap="round" stroke-linejoin="round"/>
<path d="M120.253 2.45312V206.493" stroke="#00A79E" stroke-width="3" stroke-miterlimit="10" stroke-linecap="round" stroke-linejoin="round"/>
<path d="M31.973 108.16V206.493" stroke="#00A79E" stroke-width="3" stroke-miterlimit="10" stroke-linecap="round" stroke-linejoin="round"/>
<path d="M31.973 131.342L43.0482 120.273" stroke="#00A79E" stroke-width="3" stroke-miterlimit="10" stroke-linecap="round" stroke-linejoin="round"/>
<path d="M31.7143 137.816L20.6392 126.748" stroke="#00A79E" stroke-width="3" stroke-miterlimit="10" stroke-linecap="round" stroke-linejoin="round"/>
<path d="M31.973 142.896L43.0482 131.828" stroke="#00A79E" stroke-width="3" stroke-miterlimit="10" stroke-linecap="round" stroke-linejoin="round"/>
<path d="M31.973 165.932L43.0482 154.863" stroke="#00A79E" stroke-width="3" stroke-miterlimit="10" stroke-linecap="round" stroke-linejoin="round"/>
<path d="M31.973 190.5L43.0482 179.432" stroke="#00A79E" stroke-width="3" stroke-miterlimit="10" stroke-linecap="round" stroke-linejoin="round"/>
<path d="M31.9006 117.615C31.9006 117.615 19.6869 108.532 31.9006 96.6055C31.9006 96.6055 42.8515 107.301 31.9006 117.615Z" stroke="#00A79E" stroke-width="3" stroke-miterlimit="10" stroke-linecap="round" stroke-linejoin="round"/>
<path d="M26.3009 132.138C26.3009 132.138 11.2408 134.362 11.4271 117.304C11.4271 117.293 26.7357 117.107 26.3009 132.138Z" stroke="#00A79E" stroke-width="3" stroke-miterlimit="10" stroke-linecap="round" stroke-linejoin="round"/>
<path d="M31.7143 178.459L20.6392 167.391" stroke="#00A79E" stroke-width="3" stroke-miterlimit="10" stroke-linecap="round" stroke-linejoin="round"/>
<path d="M26.3009 172.781C26.3009 172.781 11.2408 175.005 11.4271 157.947C11.4271 157.947 26.7357 157.751 26.3009 172.781Z" stroke="#00A79E" stroke-width="3" stroke-miterlimit="10" stroke-linecap="round" stroke-linejoin="round"/>
<path d="M157.691 206.493V188.67" stroke="#00A79E" stroke-width="3" stroke-miterlimit="10" stroke-linecap="round" stroke-linejoin="round"/>
<path d="M157.888 188.897C157.888 188.897 154.917 173.981 171.975 173.309C171.975 173.309 172.927 188.577 157.888 188.897Z" stroke="#00A79E" stroke-width="3" stroke-miterlimit="10" stroke-linecap="round" stroke-linejoin="round"/>
<path d="M139.05 185.266C139.05 185.266 153.106 179.432 157.101 196.024C157.101 196.024 142.31 199.945 139.05 185.266Z" stroke="#00A79E" stroke-width="3" stroke-miterlimit="10" stroke-linecap="round" stroke-linejoin="round"/>
<path d="M78.3748 205.377V160.648" stroke="#00A79E" stroke-width="3" stroke-miterlimit="10" stroke-linecap="round" stroke-linejoin="round"/>
<path d="M83.105 150.955C83.105 156.551 78.3748 161.082 78.3748 161.082C78.3748 161.082 73.6445 156.551 73.6445 150.955C73.6445 145.359 78.3748 140.828 78.3748 140.828C78.3748 140.828 83.105 145.359 83.105 150.955Z" stroke="#00A79E" stroke-width="3" stroke-miterlimit="10" stroke-linecap="round" stroke-linejoin="round"/>
<path d="M72.0609 161.961C76.6669 165.147 77.7019 171.612 77.7019 171.612C77.7019 171.612 71.2846 172.916 66.6786 169.74C62.0725 166.554 61.0375 160.089 61.0375 160.089C61.0375 160.089 67.4549 158.775 72.0609 161.961Z" stroke="#00A79E" stroke-width="3" stroke-miterlimit="10" stroke-linecap="round" stroke-linejoin="round"/>
<path d="M72.0609 177.209C76.6669 180.395 77.7019 186.86 77.7019 186.86C77.7019 186.86 71.2846 188.164 66.6786 184.988C62.0725 181.812 61.0375 175.337 61.0375 175.337C61.0375 175.337 67.4549 174.023 72.0609 177.209Z" stroke="#00A79E" stroke-width="3" stroke-miterlimit="10" stroke-linecap="round" stroke-linejoin="round"/>
<path d="M84.0158 161.961C79.4098 165.147 78.3748 171.612 78.3748 171.612C78.3748 171.612 84.7921 172.916 89.3982 169.74C94.0042 166.554 95.0392 160.089 95.0392 160.089C95.0392 160.089 88.6219 158.775 84.0158 161.961Z" stroke="#00A79E" stroke-width="3" stroke-miterlimit="10" stroke-linecap="round" stroke-linejoin="round"/>
<path d="M84.0158 177.209C79.4098 180.395 78.3748 186.86 78.3748 186.86C78.3748 186.86 84.7921 188.164 89.3982 184.988C94.0042 181.812 95.0392 175.337 95.0392 175.337C95.0392 175.337 88.6219 174.023 84.0158 177.209Z" stroke="#00A79E" stroke-width="3" stroke-miterlimit="10" stroke-linecap="round" stroke-linejoin="round"/>
<path d="M204.238 168.085C217.18 168.085 227.672 157.6 227.672 144.665C227.672 131.731 217.18 121.246 204.238 121.246C191.296 121.246 180.804 131.731 180.804 144.665C180.804 157.6 191.296 168.085 204.238 168.085Z" stroke="#00A79E" stroke-width="3" stroke-miterlimit="10" stroke-linecap="round" stroke-linejoin="round"/>
<path d="M204.238 161.226C213.39 161.226 220.809 153.811 220.809 144.665C220.809 135.518 213.39 128.104 204.238 128.104C195.086 128.104 187.667 135.518 187.667 144.665C187.667 153.811 195.086 161.226 204.238 161.226Z" stroke="#00A79E" stroke-width="3" stroke-miterlimit="10" stroke-linecap="round" stroke-linejoin="round"/>
<path d="M204.238 153.076C208.886 153.076 212.653 149.31 212.653 144.666C212.653 140.021 208.886 136.256 204.238 136.256C199.591 136.256 195.823 140.021 195.823 144.666C195.823 149.31 199.591 153.076 204.238 153.076Z" stroke="#00A79E" stroke-width="3" stroke-miterlimit="10" stroke-linecap="round" stroke-linejoin="round"/>
<path d="M204.238 205.396V161.227" stroke="#00A79E" stroke-width="3" stroke-miterlimit="10" stroke-linecap="round" stroke-linejoin="round"/>
<path d="M120.233 62.4082L155.021 38.4199" stroke="#00A79E" stroke-width="3" stroke-miterlimit="10" stroke-linecap="round" stroke-linejoin="round"/>
<path d="M155.021 39.1122C155.021 39.1122 154.731 23.9061 171.644 26.2542C171.634 26.2542 169.884 41.45 155.021 39.1122Z" stroke="#00A79E" stroke-width="3" stroke-miterlimit="10" stroke-linecap="round" stroke-linejoin="round"/>
<path d="M149.214 28.4383C149.214 28.4383 136.742 19.7181 148.614 7.43945C148.604 7.43945 159.855 17.8147 149.214 28.4383Z" stroke="#00A79E" stroke-width="3" stroke-miterlimit="10" stroke-linecap="round" stroke-linejoin="round"/>
<path d="M139.712 50.4604C139.712 50.4604 154.835 48.7432 154.079 65.7906C154.079 65.7906 138.781 65.4699 139.712 50.4604Z" stroke="#00A79E" stroke-width="3" stroke-miterlimit="10" stroke-linecap="round" stroke-linejoin="round"/>
<path d="M96.4469 29.948C96.4469 29.948 110.679 24.5587 114.157 41.2646C114.157 41.275 99.2416 44.7196 96.4469 29.948Z" stroke="#00A79E" stroke-width="3" stroke-miterlimit="10" stroke-linecap="round" stroke-linejoin="round"/>
<path d="M94.4906 128.89C94.4906 128.89 96.5504 113.819 112.894 118.742C112.894 118.742 108.816 133.493 94.4906 128.89Z" stroke="#00A79E" stroke-width="3" stroke-miterlimit="10" stroke-linecap="round" stroke-linejoin="round"/>
<path d="M98.9724 97.2165C98.9724 97.2165 110.524 87.3067 119.477 101.84C119.477 101.84 106.632 110.167 98.9724 97.2165Z" stroke="#00A79E" stroke-width="3" stroke-miterlimit="10" stroke-linecap="round" stroke-linejoin="round"/>
</svg>

<svg width="235" height="222" viewBox="0 0 235 222" fill="none" xmlns="http://www.w3.org/2000/svg"><path d="M233.447 206.494H1.553m197.644 13.953h-96.519m-18.082 0H47.508m131.754-13.955v-5.554m12.431 5.554v-12.433M120.253 2.453v204.04m-88.28-98.333v98.333m0-75.151l11.075-11.069m-11.334 17.543L20.64 126.748m11.333 16.148l11.075-11.068m-11.075 34.104l11.075-11.069M31.973 190.5l11.075-11.068M31.9 117.615s-12.213-9.083 0-21.01c0 0 10.952 10.696 0 21.01zm-5.6 14.523s-15.06 2.224-14.873-14.834c0-.011 15.309-.197 14.874 14.834zm5.414 46.321L20.64 167.391m5.66 5.39s-15.06 2.224-14.873-14.834c0 0 15.309-.196 14.874 14.834zm131.391 33.712V188.67m.197.227s-2.971-14.916 14.087-15.588c0 0 .952 15.268-14.087 15.588zm-18.838-3.631s14.056-5.834 18.051 10.758c0 0-14.791 3.921-18.051-10.758zm-60.675 20.111v-44.729m4.73-9.693c0 5.596-4.73 10.127-4.73 10.127s-4.73-4.531-4.73-10.127c0-5.596 4.73-10.127 4.73-10.127s4.73 4.531 4.73 10.127zM72.06 161.961c4.607 3.186 5.642 9.651 5.642 9.651s-6.417 1.304-11.023-1.872c-4.607-3.186-5.642-9.651-5.642-9.651s6.418-1.314 11.024 1.872zm0 15.248c4.607 3.186 5.642 9.651 5.642 9.651s-6.417 1.304-11.023-1.872c-4.607-3.176-5.642-9.651-5.642-9.651s6.418-1.314 11.024 1.872zm11.956-15.248c-4.606 3.186-5.641 9.651-5.641 9.651s6.417 1.304 11.023-1.872c4.606-3.186 5.641-9.651 5.641-9.651s-6.417-1.314-11.023 1.872zm0 15.248c-4.606 3.186-5.641 9.651-5.641 9.651s6.417 1.304 11.023-1.872 5.641-9.651 5.641-9.651-6.417-1.314-11.023 1.872zm120.222-9.124c12.942 0 23.434-10.485 23.434-23.42 0-12.934-10.492-23.419-23.434-23.419s-23.434 10.485-23.434 23.419c0 12.935 10.492 23.42 23.434 23.42z" stroke="#00A79E" stroke-width="3" stroke-miterlimit="10" stroke-linecap="round" stroke-linejoin="round"/><path d="M204.238 161.226c9.152 0 16.571-7.415 16.571-16.561 0-9.147-7.419-16.561-16.571-16.561-9.152 0-16.571 7.414-16.571 16.561 0 9.146 7.419 16.561 16.571 16.561z" stroke="#00A79E" stroke-width="3" stroke-miterlimit="10" stroke-linecap="round" stroke-linejoin="round"/><path d="M204.238 153.076c4.648 0 8.415-3.766 8.415-8.41 0-4.645-3.767-8.41-8.415-8.41-4.647 0-8.415 3.765-8.415 8.41 0 4.644 3.768 8.41 8.415 8.41zm0 52.32v-44.169m-84.005-98.819l34.788-23.988m0 .692s-.29-15.206 16.623-12.858c-.01 0-1.76 15.196-16.623 12.858zm-5.807-10.674s-12.472-8.72-.6-20.999c-.01 0 11.241 10.376.6 21zm-9.502 22.022s15.123-1.717 14.367 15.33c0 0-15.298-.32-14.367-15.33zM96.447 29.948s14.232-5.39 17.71 11.317c0 .01-14.915 3.455-17.71-11.317zM94.49 128.89s2.06-15.071 18.404-10.148c0 0-4.078 14.751-18.403 10.148zm4.482-31.674s11.552-9.91 20.505 4.624c0 0-12.845 8.327-20.505-4.624z" stroke="#00A79E" stroke-width="3" stroke-miterlimit="10" stroke-linecap="round" stroke-linejoin="round"/></svg>
